;Sliced by ideaMaker 3.1.7.1850, 2018-07-20 09:46:45 UTC+0200
;Dimension: 305.000 305.000 305.000 0.400
;Extruder Offset #1: 25.000 0.000
;Filament Diameter #1: 1.750
;Filament Diameter #2: 1.750
;Filament Compensation #1: 100.00
;Filament Compensation #2: 94.00
;Filament Density #1: 1120.00
;Filament Density #2: 1240.00
;Model Gap: 0.150
M221 T0 S100.00
M140 S100.00
M104 T0 S240.00
M109 T0 S240.00
T0
M190 S100.00
G21
G90
M82
M107
G28 X0 Y0
G28 Z0
G1 Z15.0 F6000.0
G92 E0
G1 F140 E29
G1 X20 Y0 F140 E30
G92 E0
G1 F6000.0
M117 Printing...
M1001
M106 S0
;LAYER:-2
;Z:0.500
;HEIGHT:0.500
G0 F6000 X46.443 Y61.331
G0 F1500 Z0.500
;TYPE:RAFT
;WIDTH:0.800
G1 F480 X46.811 Y61.069 E0.0751
G1 X47.538 Y60.632 E0.2162
G1 X48.302 Y60.287 E0.3556
G1 X48.978 Y60.064 E0.4740
G1 X49.841 Y59.865 E0.6213
G1 X50.701 Y59.774 E0.7651
G1 X51.135 Y59.756 E0.8373
G1 X145.992 Y59.768 E16.6121
G1 X146.867 Y59.863 E16.7585
G1 X147.282 Y59.943 E16.8287
G1 X147.951 Y60.120 E16.9438
G1 X148.682 Y60.393 E17.0736
G1 X149.412 Y60.758 E17.2093
G1 X149.914 Y61.065 E17.3072
G1 X150.494 Y61.494 E17.4272
G1 X150.808 Y61.763 E17.4959
G1 X151.292 Y62.240 E17.6089
G1 X151.767 Y62.806 E17.7318
G1 X152.205 Y63.444 E17.8605
G1 X152.523 Y64.024 E17.9705
G1 X152.756 Y64.531 E18.0633
G1 X152.968 Y65.084 E18.1618
G1 X153.155 Y65.765 E18.2792
G1 X153.275 Y66.381 E18.3836
G1 X153.340 Y67.056 E18.4964
G1 X153.361 Y67.537 E18.5764
G1 X153.359 Y162.348 E34.3436
G1 X153.319 Y163.021 E34.4557
G1 X153.238 Y163.601 E34.5531
G1 X153.171 Y163.932 E34.6092
G1 X152.976 Y164.655 E34.7338
G1 X152.710 Y165.354 E34.8581
G1 X152.341 Y166.088 E34.9948
G1 X151.956 Y166.698 E35.1147
G1 X151.613 Y167.146 E35.2086
G1 X151.368 Y167.434 E35.2714
G1 X150.831 Y167.970 E35.3976
G1 X150.377 Y168.354 E35.4965
G1 X149.825 Y168.755 E35.6100
G1 X149.122 Y169.155 E35.7445
G1 X148.611 Y169.392 E35.8381
G1 X147.915 Y169.651 E35.9616
G1 X147.065 Y169.866 E36.1075
G1 X146.370 Y169.962 E36.2241
G1 X145.559 Y170.006 E36.3592
G1 X51.147 Y170.006 E52.0600
G1 X50.482 Y169.977 E52.1707
G1 X49.676 Y169.869 E52.3059
G1 X48.970 Y169.701 E52.4266
G1 X48.152 Y169.414 E52.5708
G1 X47.463 Y169.084 E52.6978
G1 X46.969 Y168.796 E52.7929
G1 X46.436 Y168.427 E52.9007
G1 X46.131 Y168.186 E52.9654
G1 X45.515 Y167.604 E53.1063
G1 X45.175 Y167.220 E53.1916
G1 X44.769 Y166.693 E53.3022
G1 X44.535 Y166.342 E53.3724
G1 X44.155 Y165.653 E53.5032
G1 X43.941 Y165.176 E53.5902
G1 X43.655 Y164.353 E53.7351
G1 X43.493 Y163.644 E53.8560
G1 X43.386 Y162.819 E53.9943
G1 X43.361 Y162.213 E54.0952
G1 X43.361 Y67.514 E69.8437
G1 X43.403 Y66.736 E69.9733
G1 X43.527 Y65.933 E70.1084
G1 X43.728 Y65.159 E70.2414
G1 X43.988 Y64.461 E70.3653
G1 X44.361 Y63.707 E70.5052
G1 X44.722 Y63.124 E70.6192
G1 X45.265 Y62.428 E70.7660
G1 X45.852 Y61.818 E70.9068
G1 X46.443 Y61.331 E71.0341
G0 F6000 X44.400 Y63.415
G1 F480 X44.400 Y166.345 E88.1515
G0 F6000 X46.800 Y168.824
G1 F480 X46.800 Y60.935 E106.0935
G0 F6000 X49.200 Y59.889
G1 F480 X49.200 Y169.878 E124.3847
G0 F6000 X51.600 Y170.126
G1 F480 X51.600 Y59.637 E142.7591
G0 F6000 X54.000 Y59.637
G1 F480 X54.000 Y170.126 E161.1335
G0 F6000 X56.400 Y170.126
G1 F480 X56.400 Y59.637 E179.5079
G0 F6000 X58.800 Y59.637
G1 F480 X58.800 Y170.126 E197.8823
G0 F6000 X61.200 Y170.126
G1 F480 X61.200 Y59.638 E216.2565
G0 F6000 X63.600 Y59.638
G1 F480 X63.600 Y170.126 E234.6308
G0 F6000 X66.000 Y170.126
G1 F480 X66.000 Y59.638 E253.0050
G0 F6000 X68.400 Y59.639
G1 F480 X68.400 Y170.126 E271.3791
G0 F6000 X70.800 Y170.126
G1 F480 X70.800 Y59.639 E289.7531
G0 F6000 X73.200 Y59.639
G1 F480 X73.200 Y170.126 E308.1272
G0 F6000 X75.600 Y170.126
G1 F480 X75.600 Y59.640 E326.5011
G0 F6000 X78.000 Y59.640
G1 F480 X78.000 Y170.126 E344.8750
G0 F6000 X80.400 Y170.126
G1 F480 X80.400 Y59.640 E363.2489
G0 F6000 X82.800 Y59.641
G1 F480 X82.800 Y170.126 E381.6226
G0 F6000 X85.200 Y170.126
G1 F480 X85.200 Y59.641 E399.9963
G0 F6000 X87.600 Y59.641
G1 F480 X87.600 Y170.126 E418.3701
G0 F6000 X90.000 Y170.126
G1 F480 X90.000 Y59.641 E436.7438
G0 F6000 X92.400 Y59.642
G1 F480 X92.400 Y170.126 E455.1173
G0 F6000 X94.800 Y170.126
G1 F480 X94.800 Y59.642 E473.4909
G0 F6000 X97.200 Y59.642
G1 F480 X97.200 Y170.126 E491.8645
G0 F6000 X99.600 Y170.126
G1 F480 X99.600 Y59.643 E510.2379
G0 F6000 X102.000 Y59.643
G1 F480 X102.000 Y170.126 E528.6113
G0 F6000 X104.400 Y170.126
G1 F480 X104.400 Y59.643 E546.9847
G0 F6000 X106.800 Y59.644
G1 F480 X106.800 Y170.126 E565.3579
G0 F6000 X109.200 Y170.126
G1 F480 X109.200 Y59.644 E583.7311
G0 F6000 X111.600 Y59.644
G1 F480 X111.600 Y170.126 E602.1044
G0 F6000 X114.000 Y170.126
G1 F480 X114.000 Y59.644 E620.4776
G0 F6000 X116.400 Y59.645
G1 F480 X116.400 Y170.126 E638.8506
G0 F6000 X118.800 Y170.126
G1 F480 X118.800 Y59.645 E657.2238
G0 F6000 X121.200 Y59.645
G1 F480 X121.200 Y170.126 E675.5968
G0 F6000 X123.600 Y170.126
G1 F480 X123.600 Y59.646 E693.9697
G0 F6000 X126.000 Y59.646
G1 F480 X126.000 Y170.126 E712.3426
G0 F6000 X128.400 Y170.126
G1 F480 X128.400 Y59.646 E730.7155
G0 F6000 X130.800 Y59.647
G1 F480 X130.800 Y170.126 E749.0882
G0 F6000 X133.200 Y170.126
G1 F480 X133.200 Y59.647 E767.4609
G0 F6000 X135.600 Y59.647
G1 F480 X135.600 Y170.126 E785.8337
G0 F6000 X138.000 Y170.126
G1 F480 X138.000 Y59.647 E804.2064
G0 F6000 X140.400 Y59.648
G1 F480 X140.400 Y170.126 E822.5790
G0 F6000 X142.800 Y170.126
G1 F480 X142.800 Y59.648 E840.9515
G0 F6000 X145.200 Y59.648
G1 F480 X145.200 Y170.126 E859.3241
G0 F6000 X147.600 Y169.855
G1 F480 X147.600 Y59.904 E877.6091
G0 F6000 X150.000 Y60.980
G1 F480 X150.000 Y168.776 E895.5356
G0 F6000 X152.400 Y166.220
G1 F480 X152.400 Y63.551 E912.6095
;LAYER:-2
;Z:1.000
;HEIGHT:0.500
G0 F6000 X152.205 Y63.444
G0 F1500 Z1.000
;TYPE:RAFT
;WIDTH:0.800
G1 F960 X152.523 Y64.024 E912.7195
G1 X152.756 Y64.531 E912.8123
G1 X152.968 Y65.084 E912.9108
G1 X153.155 Y65.765 E913.0283
G1 X153.275 Y66.381 E913.1326
G1 X153.340 Y67.056 E913.2454
G1 X153.361 Y67.537 E913.3254
G1 X153.359 Y162.348 E929.0926
G1 X153.319 Y163.021 E929.2047
G1 X153.238 Y163.601 E929.3021
G1 X153.171 Y163.932 E929.3583
G1 X152.976 Y164.655 E929.4828
G1 X152.710 Y165.354 E929.6072
G1 X152.341 Y166.088 E929.7438
G1 X151.956 Y166.698 E929.8637
G1 X151.613 Y167.146 E929.9576
G1 X151.368 Y167.434 E930.0204
G1 X150.831 Y167.970 E930.1466
G1 X150.377 Y168.354 E930.2455
G1 X149.825 Y168.755 E930.3589
G1 X149.122 Y169.155 E930.4935
G1 X148.611 Y169.392 E930.5872
G1 X147.915 Y169.651 E930.7106
G1 X147.065 Y169.866 E930.8564
G1 X146.370 Y169.962 E930.9731
G1 X145.559 Y170.006 E931.1082
G1 X51.147 Y170.006 E946.8090
G1 X50.482 Y169.977 E946.9197
G1 X49.676 Y169.869 E947.0549
G1 X48.970 Y169.701 E947.1756
G1 X48.152 Y169.414 E947.3198
G1 X47.463 Y169.084 E947.4468
G1 X46.969 Y168.796 E947.5419
G1 X46.436 Y168.427 E947.6497
G1 X46.131 Y168.186 E947.7144
G1 X45.515 Y167.604 E947.8553
G1 X45.175 Y167.220 E947.9406
G1 X44.769 Y166.693 E948.0512
G1 X44.535 Y166.342 E948.1214
G1 X44.155 Y165.653 E948.2522
G1 X43.941 Y165.176 E948.3392
G1 X43.655 Y164.353 E948.4841
G1 X43.493 Y163.644 E948.6050
G1 X43.386 Y162.819 E948.7433
G1 X43.361 Y162.213 E948.8442
G1 X43.361 Y67.514 E964.5927
G1 X43.403 Y66.736 E964.7223
G1 X43.527 Y65.933 E964.8574
G1 X43.728 Y65.159 E964.9904
G1 X43.988 Y64.461 E965.1143
G1 X44.361 Y63.707 E965.2542
G1 X44.722 Y63.124 E965.3682
G1 X45.265 Y62.428 E965.5150
G1 X45.852 Y61.818 E965.6558
G1 X46.443 Y61.331 E965.7831
G1 X46.811 Y61.069 E965.8583
G1 X47.538 Y60.632 E965.9993
G1 X48.302 Y60.287 E966.1387
G1 X48.978 Y60.064 E966.2571
G1 X49.841 Y59.865 E966.4044
G1 X50.701 Y59.774 E966.5482
G1 X51.135 Y59.756 E966.6205
G1 X145.992 Y59.768 E982.3953
G1 X146.867 Y59.863 E982.5416
G1 X147.282 Y59.943 E982.6119
G1 X147.951 Y60.120 E982.7270
G1 X148.682 Y60.393 E982.8568
G1 X149.412 Y60.758 E982.9925
G1 X149.914 Y61.065 E983.0903
G1 X150.494 Y61.494 E983.2103
G1 X150.808 Y61.763 E983.2791
G1 X151.292 Y62.240 E983.3921
G1 X151.767 Y62.806 E983.5150
G1 X152.205 Y63.444 E983.6437
G0 F6000 X152.400 Y63.551
G1 F960 X152.400 Y166.220 E1000.7176
G0 F6000 X150.000 Y168.776
G1 F960 X150.000 Y60.980 E1018.6441
G0 F6000 X147.600 Y59.904
G1 F960 X147.600 Y169.855 E1036.9291
G0 F6000 X145.200 Y170.126
G1 F960 X145.200 Y59.648 E1055.3016
G0 F6000 X142.800 Y59.648
G1 F960 X142.800 Y170.126 E1073.6742
G0 F6000 X140.400 Y170.126
G1 F960 X140.400 Y59.648 E1092.0468
G0 F6000 X138.000 Y59.647
G1 F960 X138.000 Y170.126 E1110.4194
G0 F6000 X135.600 Y170.126
G1 F960 X135.600 Y59.647 E1128.7922
G0 F6000 X133.200 Y59.647
G1 F960 X133.200 Y170.126 E1147.1649
G0 F6000 X130.800 Y170.126
G1 F960 X130.800 Y59.647 E1165.5377
G0 F6000 X128.400 Y59.646
G1 F960 X128.400 Y170.126 E1183.9105
G0 F6000 X126.000 Y170.126
G1 F960 X126.000 Y59.646 E1202.2834
G0 F6000 X123.600 Y59.646
G1 F960 X123.600 Y170.126 E1220.6564
G0 F6000 X121.200 Y170.126
G1 F960 X121.200 Y59.645 E1239.0294
G0 F6000 X118.800 Y59.645
G1 F960 X118.800 Y170.126 E1257.4025
G0 F6000 X116.400 Y170.126
G1 F960 X116.400 Y59.645 E1275.7755
G0 F6000 X114.000 Y59.644
G1 F960 X114.000 Y170.126 E1294.1488
G0 F6000 X111.600 Y170.126
G1 F960 X111.600 Y59.644 E1312.5220
G0 F6000 X109.200 Y59.644
G1 F960 X109.200 Y170.126 E1330.8953
G0 F6000 X106.800 Y170.126
G1 F960 X106.800 Y59.644 E1349.2684
G0 F6000 X104.400 Y59.643
G1 F960 X104.400 Y170.126 E1367.6418
G0 F6000 X102.000 Y170.126
G1 F960 X102.000 Y59.643 E1386.0153
G0 F6000 X99.600 Y59.643
G1 F960 X99.600 Y170.126 E1404.3887
G0 F6000 X97.200 Y170.126
G1 F960 X97.200 Y59.642 E1422.7622
G0 F6000 X94.800 Y59.642
G1 F960 X94.800 Y170.126 E1441.1359
G0 F6000 X92.400 Y170.126
G1 F960 X92.400 Y59.642 E1459.5094
G0 F6000 X90.000 Y59.641
G1 F960 X90.000 Y170.126 E1477.8831
G0 F6000 X87.600 Y170.126
G1 F960 X87.600 Y59.641 E1496.2568
G0 F6000 X85.200 Y59.641
G1 F960 X85.200 Y170.126 E1514.6306
G0 F6000 X82.800 Y170.126
G1 F960 X82.800 Y59.641 E1533.0043
G0 F6000 X80.400 Y59.640
G1 F960 X80.400 Y170.126 E1551.3782
G0 F6000 X78.000 Y170.126
G1 F960 X78.000 Y59.640 E1569.7521
G0 F6000 X75.600 Y59.640
G1 F960 X75.600 Y170.126 E1588.1260
G0 F6000 X73.200 Y170.126
G1 F960 X73.200 Y59.639 E1606.5000
G0 F6000 X70.800 Y59.639
G1 F960 X70.800 Y170.126 E1624.8741
G0 F6000 X68.400 Y170.126
G1 F960 X68.400 Y59.639 E1643.2482
G0 F6000 X66.000 Y59.638
G1 F960 X66.000 Y170.126 E1661.6224
G0 F6000 X63.600 Y170.126
G1 F960 X63.600 Y59.638 E1679.9966
G0 F6000 X61.200 Y59.638
G1 F960 X61.200 Y170.126 E1698.3708
G0 F6000 X58.800 Y170.126
G1 F960 X58.800 Y59.637 E1716.7452
G0 F6000 X56.400 Y59.637
G1 F960 X56.400 Y170.126 E1735.1196
G0 F6000 X54.000 Y170.126
G1 F960 X54.000 Y59.637 E1753.4940
G0 F6000 X51.600 Y59.637
G1 F960 X51.600 Y170.126 E1771.8684
G0 F6000 X49.200 Y169.878
G1 F960 X49.200 Y59.889 E1790.1597
G0 F6000 X46.800 Y60.935
G1 F960 X46.800 Y168.824 E1808.1017
G0 F6000 X44.400 Y166.345
G1 F960 X44.400 Y63.415 E1825.2190
;LAYER:-1
;Z:1.380
;HEIGHT:0.380
G0 F6000 X47.416 Y60.600
G0 F1500 Z1.380
;TYPE:RAFT
;WIDTH:0.600
G1 F1800 X149.300 Y60.600 E1834.8767
G0 F6000 X150.975 Y61.800
G1 F1800 X45.744 Y61.800 E1844.8517
G0 F6000 X44.704 Y63.000
G1 F1800 X152.011 Y63.000 E1855.0236
G0 F6000 X152.704 Y64.200
G1 F1800 X44.016 Y64.200 E1865.3262
G0 F6000 X43.572 Y65.400
G1 F1800 X153.149 Y65.400 E1875.7131
G0 F6000 X153.387 Y66.600
G1 F1800 X43.332 Y66.600 E1886.1454
G0 F6000 X43.270 Y67.800
G1 F1800 X153.450 Y67.800 E1896.5896
G0 F6000 X153.450 Y69.000
G1 F1800 X43.270 Y69.000 E1907.0337
G0 F6000 X43.270 Y70.200
G1 F1800 X153.450 Y70.200 E1917.4778
G0 F6000 X153.450 Y71.400
G1 F1800 X43.270 Y71.400 E1927.9219
G0 F6000 X43.270 Y72.600
G1 F1800 X153.450 Y72.600 E1938.3660
G0 F6000 X153.450 Y73.800
G1 F1800 X43.270 Y73.800 E1948.8101
G0 F6000 X43.270 Y75.000
G1 F1800 X153.450 Y75.000 E1959.2543
G0 F6000 X153.450 Y76.200
G1 F1800 X43.270 Y76.200 E1969.6984
G0 F6000 X43.270 Y77.400
G1 F1800 X153.450 Y77.400 E1980.1425
G0 F6000 X153.450 Y78.600
G1 F1800 X43.270 Y78.600 E1990.5865
G0 F6000 X43.270 Y79.800
G1 F1800 X153.450 Y79.800 E2001.0306
G0 F6000 X153.450 Y81.000
G1 F1800 X43.270 Y81.000 E2011.4749
G0 F6000 X43.270 Y82.200
G1 F1800 X153.450 Y82.200 E2021.9189
G0 F6000 X153.450 Y83.400
G1 F1800 X43.270 Y83.400 E2032.3630
G0 F6000 X43.270 Y84.600
G1 F1800 X153.450 Y84.600 E2042.8071
G0 F6000 X153.450 Y85.800
G1 F1800 X43.270 Y85.800 E2053.2512
G0 F6000 X43.270 Y87.000
G1 F1800 X153.450 Y87.000 E2063.6953
G0 F6000 X153.450 Y88.200
G1 F1800 X43.270 Y88.200 E2074.1394
G0 F6000 X43.270 Y89.400
G1 F1800 X153.450 Y89.400 E2084.5835
G0 F6000 X153.450 Y90.600
G1 F1800 X43.270 Y90.600 E2095.0278
G0 F6000 X43.270 Y91.800
G1 F1800 X153.450 Y91.800 E2105.4719
G0 F6000 X153.450 Y93.000
G1 F1800 X43.270 Y93.000 E2115.9160
G0 F6000 X43.270 Y94.200
G1 F1800 X153.450 Y94.200 E2126.3601
G0 F6000 X153.450 Y95.400
G1 F1800 X43.270 Y95.400 E2136.8042
G0 F6000 X43.270 Y96.600
G1 F1800 X153.450 Y96.600 E2147.2483
G0 F6000 X153.450 Y97.800
G1 F1800 X43.270 Y97.800 E2157.6924
G0 F6000 X43.270 Y99.000
G1 F1800 X153.450 Y99.000 E2168.1365
G0 F6000 X153.450 Y100.200
G1 F1800 X43.270 Y100.200 E2178.5806
G0 F6000 X43.270 Y101.400
G1 F1800 X153.450 Y101.400 E2189.0247
G0 F6000 X153.450 Y102.600
G1 F1800 X43.270 Y102.600 E2199.4688
G0 F6000 X43.270 Y103.800
G1 F1800 X153.450 Y103.800 E2209.9131
G0 F6000 X153.450 Y105.000
G1 F1800 X43.270 Y105.000 E2220.3572
G0 F6000 X43.270 Y106.200
G1 F1800 X153.450 Y106.200 E2230.8013
G0 F6000 X153.450 Y107.400
G1 F1800 X43.270 Y107.400 E2241.2454
G0 F6000 X43.270 Y108.600
G1 F1800 X153.450 Y108.600 E2251.6895
G0 F6000 X153.450 Y109.800
G1 F1800 X43.270 Y109.800 E2262.1335
G0 F6000 X43.270 Y111.000
G1 F1800 X153.450 Y111.000 E2272.5776
G0 F6000 X153.450 Y112.200
G1 F1800 X43.270 Y112.200 E2283.0217
G0 F6000 X43.270 Y113.400
G1 F1800 X153.450 Y113.400 E2293.4658
G0 F6000 X153.450 Y114.600
G1 F1800 X43.270 Y114.600 E2303.9099
G0 F6000 X43.270 Y115.800
G1 F1800 X153.449 Y115.800 E2314.3540
G0 F6000 X153.449 Y117.000
G1 F1800 X43.270 Y117.000 E2324.7981
G0 F6000 X43.270 Y118.200
G1 F1800 X153.449 Y118.200 E2335.2422
G0 F6000 X153.449 Y119.400
G1 F1800 X43.270 Y119.400 E2345.6860
G0 F6000 X43.270 Y120.600
G1 F1800 X153.449 Y120.600 E2356.1301
G0 F6000 X153.449 Y121.800
G1 F1800 X43.270 Y121.800 E2366.5742
G0 F6000 X43.270 Y123.000
G1 F1800 X153.449 Y123.000 E2377.0181
G0 F6000 X153.449 Y124.200
G1 F1800 X43.270 Y124.200 E2387.4622
G0 F6000 X43.270 Y125.400
G1 F1800 X153.449 Y125.400 E2397.9062
G0 F6000 X153.449 Y126.600
G1 F1800 X43.270 Y126.600 E2408.3501
G0 F6000 X43.270 Y127.800
G1 F1800 X153.449 Y127.800 E2418.7942
G0 F6000 X153.449 Y129.000
G1 F1800 X43.270 Y129.000 E2429.2383
G0 F6000 X43.270 Y130.200
G1 F1800 X153.449 Y130.200 E2439.6824
G0 F6000 X153.449 Y131.400
G1 F1800 X43.270 Y131.400 E2450.1262
G0 F6000 X43.270 Y132.600
G1 F1800 X153.449 Y132.600 E2460.5703
G0 F6000 X153.449 Y133.800
G1 F1800 X43.270 Y133.800 E2471.0144
G0 F6000 X43.270 Y135.000
G1 F1800 X153.449 Y135.000 E2481.4583
G0 F6000 X153.449 Y136.200
G1 F1800 X43.270 Y136.200 E2491.9023
G0 F6000 X43.270 Y137.400
G1 F1800 X153.449 Y137.400 E2502.3464
G0 F6000 X153.449 Y138.600
G1 F1800 X43.270 Y138.600 E2512.7905
G0 F6000 X43.270 Y139.800
G1 F1800 X153.449 Y139.800 E2523.2344
G0 F6000 X153.449 Y141.000
G1 F1800 X43.270 Y141.000 E2533.6785
G0 F6000 X43.270 Y142.200
G1 F1800 X153.449 Y142.200 E2544.1226
G0 F6000 X153.449 Y143.400
G1 F1800 X43.270 Y143.400 E2554.5664
G0 F6000 X43.270 Y144.600
G1 F1800 X153.449 Y144.600 E2565.0105
G0 F6000 X153.449 Y145.800
G1 F1800 X43.270 Y145.800 E2575.4546
G0 F6000 X43.270 Y147.000
G1 F1800 X153.449 Y147.000 E2585.8984
