;Sliced by ideaMaker 3.1.7.1850, 2018-07-20 09:49:03 UTC+0200
;Dimension: 305.000 305.000 305.000 0.400
;Extruder Offset #1: 25.000 0.000
;Filament Diameter #1: 1.750
;Filament Diameter #2: 1.750
;Filament Compensation #1: 100.00
;Filament Compensation #2: 94.00
;Filament Density #1: 1120.00
;Filament Density #2: 1240.00
;Model Gap: 0.150
M221 T0 S100.00
M140 S100.00
M104 T0 S240.00
M109 T0 S240.00
T0
M190 S100.00
G21
G90
M82
M107
G28 X0 Y0
G28 Z0
G1 Z15.0 F6000.0
G92 E0
G1 F140 E29
G1 X20 Y0 F140 E30
G92 E0
G1 F6000.0
M117 Printing...
M1001
M106 S0
;LAYER:-2
;Z:0.500
;HEIGHT:0.500
G0 F6000 X100.590 Y98.989
G0 F1500 Z0.500
;TYPE:RAFT
;WIDTH:0.800
G1 F480 X101.134 Y98.510 E0.1205
G1 X101.598 Y98.197 E0.2136
G1 X102.100 Y97.936 E0.3077
G1 X102.486 Y97.781 E0.3769
G1 X103.179 Y97.590 E0.4964
G1 X103.740 Y97.511 E0.5906
G1 X104.197 Y97.490 E0.6667
G1 X108.120 Y97.490 E1.3191
G1 X108.831 Y97.538 E1.4376
G1 X109.373 Y97.639 E1.5293
G1 X109.756 Y97.751 E1.5957
G1 X110.438 Y98.036 E1.7186
G1 X110.918 Y98.315 E1.8109
G1 X111.314 Y98.599 E1.8920
G1 X111.636 Y98.800 E1.9551
G1 X112.035 Y98.981 E2.0280
G1 X112.456 Y99.101 E2.1008
G1 X113.067 Y99.164 E2.2029
G1 X195.264 Y99.164 E15.8723
G1 X195.701 Y99.132 E15.9452
G1 X196.128 Y99.037 E16.0179
G1 X196.537 Y98.880 E16.0908
G1 X196.919 Y98.666 E16.1636
G1 X197.598 Y98.197 E16.3008
G1 X197.962 Y98.001 E16.3696
G1 X198.624 Y97.734 E16.4883
G1 X199.179 Y97.590 E16.5837
G1 X199.740 Y97.511 E16.6779
G1 X200.197 Y97.490 E16.7540
G1 X204.232 Y97.493 E17.4250
G1 X204.648 Y97.517 E17.4943
G1 X205.211 Y97.602 E17.5890
G1 X205.756 Y97.751 E17.6829
G1 X206.276 Y97.958 E17.7760
G1 X206.918 Y98.315 E17.8982
G1 X207.373 Y98.652 E17.9923
G1 X207.781 Y99.032 E18.0850
G1 X208.154 Y99.470 E18.1807
G1 X208.383 Y99.798 E18.2472
G1 X208.728 Y100.436 E18.3679
G1 X208.930 Y100.960 E18.4612
G1 X209.074 Y101.515 E18.5566
G1 X209.137 Y101.917 E18.6243
G1 X209.172 Y102.442 E18.7118
G1 X209.174 Y106.456 E19.3793
G1 X209.147 Y106.984 E19.4672
G1 X209.062 Y107.547 E19.5619
G1 X208.853 Y108.261 E19.6856
G1 X208.628 Y108.774 E19.7788
G1 X208.349 Y109.254 E19.8711
G1 X207.794 Y110.028 E20.0295
G1 X207.599 Y110.420 E20.1023
G1 X207.463 Y110.836 E20.1751
G1 X207.389 Y111.268 E20.2480
G1 X207.375 Y111.557 E20.2961
G1 X207.380 Y193.446 E33.9143
G1 X207.412 Y193.883 E33.9872
G1 X207.507 Y194.310 E34.0599
G1 X207.664 Y194.719 E34.1328
G1 X207.878 Y195.101 E34.2056
G1 X208.155 Y195.471 E34.2825
G1 X208.467 Y195.934 E34.3753
G1 X208.728 Y196.436 E34.4694
G1 X208.883 Y196.822 E34.5386
G1 X209.074 Y197.515 E34.6581
G1 X209.153 Y198.076 E34.7523
G1 X209.174 Y198.533 E34.8284
G1 X209.171 Y202.568 E35.4994
G1 X209.147 Y202.984 E35.5687
G1 X209.062 Y203.547 E35.6634
G1 X208.853 Y204.261 E35.7871
G1 X208.628 Y204.774 E35.8803
G1 X208.349 Y205.254 E35.9726
G1 X208.108 Y205.590 E36.0414
G1 X207.738 Y206.011 E36.1346
G1 X207.320 Y206.391 E36.2285
G1 X206.870 Y206.716 E36.3209
G1 X206.228 Y207.064 E36.4423
G1 X205.704 Y207.266 E36.5357
G1 X205.149 Y207.410 E36.6310
G1 X204.588 Y207.489 E36.7253
G1 X204.132 Y207.510 E36.8012
G1 X200.096 Y207.507 E37.4724
G1 X199.680 Y207.483 E37.5417
G1 X199.117 Y207.398 E37.6363
G1 X198.403 Y207.189 E37.7601
G1 X197.890 Y206.964 E37.8532
G1 X197.410 Y206.685 E37.9455
G1 X197.014 Y206.401 E38.0266
G1 X196.683 Y206.195 E38.0914
G1 X196.284 Y206.016 E38.1642
G1 X195.862 Y205.897 E38.2371
G1 X195.263 Y205.837 E38.3372
G1 X113.063 Y205.837 E52.0071
G1 X112.626 Y205.869 E52.0800
G1 X112.199 Y205.964 E52.1527
G1 X111.790 Y206.121 E52.2256
G1 X111.408 Y206.335 E52.2984
G1 X110.730 Y206.803 E52.4354
G1 X110.228 Y207.064 E52.5295
G1 X109.704 Y207.266 E52.6229
G1 X109.149 Y207.410 E52.7182
G1 X108.747 Y207.473 E52.7859
G1 X108.132 Y207.510 E52.8884
G1 X104.096 Y207.507 E53.5595
G1 X103.680 Y207.483 E53.6288
G1 X103.117 Y207.398 E53.7235
G1 X102.403 Y207.189 E53.8472
G1 X101.890 Y206.964 E53.9404
G1 X101.410 Y206.685 E54.0327
G1 X101.073 Y206.443 E54.1017
G1 X100.653 Y206.074 E54.1947
G1 X100.273 Y205.656 E54.2887
G1 X99.945 Y205.202 E54.3818
G1 X99.600 Y204.564 E54.5024
G1 X99.396 Y204.034 E54.5969
G1 X99.254 Y203.485 E54.6912
G1 X99.175 Y202.924 E54.7854
G1 X99.154 Y202.468 E54.8613
G1 X99.154 Y198.544 E55.5139
G1 X99.181 Y198.016 E55.6018
G1 X99.266 Y197.453 E55.6965
G1 X99.480 Y196.726 E55.8225
G1 X99.700 Y196.226 E55.9133
G1 X99.979 Y195.746 E56.0057
G1 X100.530 Y194.977 E56.1630
G1 X100.725 Y194.584 E56.2359
G1 X100.861 Y194.168 E56.3087
G1 X100.934 Y193.736 E56.3816
G1 X100.948 Y193.449 E56.4294
G1 X100.949 Y111.555 E70.0484
G1 X100.917 Y111.118 E70.1213
G1 X100.822 Y110.691 E70.1940
G1 X100.665 Y110.282 E70.2669
G1 X100.451 Y109.900 E70.3397
G1 X100.174 Y109.531 E70.4164
G1 X99.861 Y109.066 E70.5096
G1 X99.662 Y108.697 E70.5794
G1 X99.445 Y108.178 E70.6729
G1 X99.254 Y107.485 E70.7924
G1 X99.175 Y106.924 E70.8867
G1 X99.154 Y106.468 E70.9626
G1 X99.154 Y102.544 E71.6151
G1 X99.181 Y102.016 E71.7031
G1 X99.266 Y101.453 E71.7978
G1 X99.480 Y100.726 E71.9238
G1 X99.700 Y100.226 E72.0146
G1 X99.979 Y99.746 E72.1070
G1 X100.226 Y99.402 E72.1774
G1 X100.590 Y98.989 E72.2689
G0 F6000 X99.600 Y100.159
G1 F480 X99.600 Y108.834 E73.7116
G0 F6000 X102.000 Y97.853
G1 F480 X102.000 Y207.143 E91.8866
G0 F6000 X104.400 Y207.627
G1 F480 X104.400 Y97.370 E110.2224
G0 F6000 X106.800 Y97.370
G1 F480 X106.800 Y207.629 E128.5585
G0 F6000 X109.200 Y207.521
G1 F480 X109.200 Y97.485 E146.8576
G0 F6000 X111.600 Y98.636
G1 F480 X111.600 Y206.366 E164.7732
G0 F6000 X114.000 Y205.957
G1 F480 X114.000 Y99.044 E182.5529
G0 F6000 X116.400 Y99.044
G1 F480 X116.400 Y205.957 E200.3326
G0 F6000 X118.800 Y205.957
G1 F480 X118.800 Y99.044 E218.1123
G0 F6000 X121.200 Y99.044
G1 F480 X121.200 Y205.957 E235.8920
G0 F6000 X123.600 Y205.957
G1 F480 X123.600 Y99.044 E253.6717
G0 F6000 X126.000 Y99.044
G1 F480 X126.000 Y205.957 E271.4514
G0 F6000 X128.400 Y205.957
G1 F480 X128.400 Y99.044 E289.2311
G0 F6000 X130.800 Y99.044
G1 F480 X130.800 Y205.957 E307.0108
G0 F6000 X133.200 Y205.957
G1 F480 X133.200 Y99.044 E324.7905
G0 F6000 X135.600 Y99.044
G1 F480 X135.600 Y205.957 E342.5702
G0 F6000 X138.000 Y205.957
G1 F480 X138.000 Y99.044 E360.3499
G0 F6000 X140.400 Y99.044
G1 F480 X140.400 Y205.957 E378.1296
G0 F6000 X142.800 Y205.957
G1 F480 X142.800 Y99.044 E395.9093
G0 F6000 X145.200 Y99.044
G1 F480 X145.200 Y205.957 E413.6891
G0 F6000 X147.600 Y205.957
G1 F480 X147.600 Y99.044 E431.4688
G0 F6000 X150.000 Y99.044
G1 F480 X150.000 Y205.957 E449.2484
G0 F6000 X152.400 Y205.957
G1 F480 X152.400 Y99.044 E467.0282
G0 F6000 X154.800 Y99.044
G1 F480 X154.800 Y205.957 E484.8079
G0 F6000 X157.200 Y205.957
G1 F480 X157.200 Y99.044 E502.5876
G0 F6000 X159.600 Y99.044
G1 F480 X159.600 Y205.957 E520.3672
G0 F6000 X162.000 Y205.957
G1 F480 X162.000 Y99.044 E538.1470
G0 F6000 X164.400 Y99.044
G1 F480 X164.400 Y205.957 E555.9267
G0 F6000 X166.800 Y205.957
G1 F480 X166.800 Y99.044 E573.7064
G0 F6000 X169.200 Y99.044
G1 F480 X169.200 Y205.957 E591.4861
G0 F6000 X171.600 Y205.957
G1 F480 X171.600 Y99.044 E609.2658
G0 F6000 X174.000 Y99.044
G1 F480 X174.000 Y205.957 E627.0455
G0 F6000 X176.400 Y205.957
G1 F480 X176.400 Y99.044 E644.8252
G0 F6000 X178.800 Y99.044
G1 F480 X178.800 Y205.957 E662.6049
G0 F6000 X181.200 Y205.957
G1 F480 X181.200 Y99.044 E680.3846
G0 F6000 X183.600 Y99.044
G1 F480 X183.600 Y205.957 E698.1643
G0 F6000 X186.000 Y205.957
G1 F480 X186.000 Y99.044 E715.9440
G0 F6000 X188.400 Y99.044
G1 F480 X188.400 Y205.957 E733.7237
G0 F6000 X190.800 Y205.957
G1 F480 X190.800 Y99.044 E751.5034
G0 F6000 X193.200 Y99.044
G1 F480 X193.200 Y205.957 E769.2831
G0 F6000 X195.600 Y205.991
G1 F480 X195.600 Y99.018 E787.0728
G0 F6000 X198.000 Y97.856
G1 F480 X198.000 Y207.143 E805.2473
G0 F6000 X200.400 Y207.627
G1 F480 X200.400 Y97.371 E823.5829
G0 F6000 X202.800 Y97.372
G1 F480 X202.800 Y207.629 E841.9188
G0 F6000 X205.200 Y207.521
G1 F480 X205.200 Y97.479 E860.2188
G0 F6000 X207.600 Y98.700
G1 F480 X207.600 Y110.802 E862.2314
G0 F6000 X207.600 Y194.176
G1 F480 X207.600 Y206.299 E864.2474
G0 F6000 X99.600 Y204.815
G1 F480 X99.600 Y196.159 E865.6870
;LAYER:-2
;Z:1.000
;HEIGHT:0.500
G0 F6000 X99.700 Y196.226
G0 F1500 Z1.000
;TYPE:RAFT
;WIDTH:0.800
G1 F960 X99.979 Y195.746 E865.7793
G1 X100.530 Y194.977 E865.9366
G1 X100.725 Y194.584 E866.0096
G1 X100.861 Y194.168 E866.0823
G1 X100.934 Y193.736 E866.1552
G1 X100.948 Y193.449 E866.2030
G1 X100.949 Y111.555 E879.8220
G1 X100.917 Y111.118 E879.8949
G1 X100.822 Y110.691 E879.9677
G1 X100.665 Y110.282 E880.0405
G1 X100.451 Y109.900 E880.1133
G1 X100.174 Y109.531 E880.1901
G1 X99.861 Y109.066 E880.2833
G1 X99.662 Y108.697 E880.3530
G1 X99.445 Y108.178 E880.4465
G1 X99.254 Y107.485 E880.5661
G1 X99.175 Y106.924 E880.6603
G1 X99.154 Y106.468 E880.7362
G1 X99.154 Y102.544 E881.3888
G1 X99.181 Y102.016 E881.4767
G1 X99.266 Y101.453 E881.5714
G1 X99.480 Y100.726 E881.6974
G1 X99.700 Y100.226 E881.7883
G1 X99.979 Y99.746 E881.8806
G1 X100.226 Y99.402 E881.9510
G1 X100.590 Y98.989 E882.0425
G1 X101.134 Y98.510 E882.1631
G1 X101.598 Y98.197 E882.2562
G1 X102.100 Y97.936 E882.3503
G1 X102.486 Y97.781 E882.4194
G1 X103.179 Y97.590 E882.5390
G1 X103.740 Y97.511 E882.6332
G1 X104.197 Y97.490 E882.7093
G1 X108.120 Y97.490 E883.3617
G1 X108.831 Y97.538 E883.4802
G1 X109.373 Y97.639 E883.5719
G1 X109.756 Y97.751 E883.6382
G1 X110.438 Y98.036 E883.7612
G1 X110.918 Y98.315 E883.8535
G1 X111.314 Y98.599 E883.9345
G1 X111.636 Y98.800 E883.9977
G1 X112.035 Y98.981 E884.0705
G1 X112.456 Y99.101 E884.1433
G1 X113.067 Y99.164 E884.2455
G1 X195.264 Y99.164 E897.9149
G1 X195.701 Y99.132 E897.9877
G1 X196.128 Y99.037 E898.0605
G1 X196.537 Y98.880 E898.1334
G1 X196.919 Y98.666 E898.2062
G1 X197.598 Y98.197 E898.3434
G1 X197.962 Y98.001 E898.4122
G1 X198.624 Y97.734 E898.5309
G1 X199.179 Y97.590 E898.6262
G1 X199.740 Y97.511 E898.7205
G1 X200.197 Y97.490 E898.7965
G1 X204.232 Y97.493 E899.4675
G1 X204.648 Y97.517 E899.5368
G1 X205.211 Y97.602 E899.6315
G1 X205.756 Y97.751 E899.7255
G1 X206.276 Y97.958 E899.8185
G1 X206.918 Y98.315 E899.9407
G1 X207.373 Y98.652 E900.0349
G1 X207.781 Y99.032 E900.1276
G1 X208.154 Y99.470 E900.2233
G1 X208.383 Y99.798 E900.2898
G1 X208.728 Y100.436 E900.4104
G1 X208.930 Y100.960 E900.5038
G1 X209.074 Y101.515 E900.5992
G1 X209.137 Y101.917 E900.6668
G1 X209.172 Y102.442 E900.7543
G1 X209.174 Y106.456 E901.4219
G1 X209.147 Y106.984 E901.5098
G1 X209.062 Y107.547 E901.6045
G1 X208.853 Y108.261 E901.7282
G1 X208.628 Y108.774 E901.8214
G1 X208.349 Y109.254 E901.9137
G1 X207.794 Y110.028 E902.0721
G1 X207.599 Y110.420 E902.1449
G1 X207.463 Y110.836 E902.2177
G1 X207.389 Y111.268 E902.2905
G1 X207.375 Y111.557 E902.3387
G1 X207.380 Y193.446 E915.9568
G1 X207.412 Y193.883 E916.0297
G1 X207.507 Y194.310 E916.1025
G1 X207.664 Y194.719 E916.1754
G1 X207.878 Y195.101 E916.2482
G1 X208.155 Y195.471 E916.3250
G1 X208.467 Y195.934 E916.4178
G1 X208.728 Y196.436 E916.5120
G1 X208.883 Y196.822 E916.5811
G1 X209.074 Y197.515 E916.7007
G1 X209.153 Y198.076 E916.7949
G1 X209.174 Y198.533 E916.8710
G1 X209.171 Y202.568 E917.5420
G1 X209.147 Y202.984 E917.6113
G1 X209.062 Y203.547 E917.7060
G1 X208.853 Y204.261 E917.8297
G1 X208.628 Y204.774 E917.9229
G1 X208.349 Y205.254 E918.0152
G1 X208.108 Y205.590 E918.0839
G1 X207.738 Y206.011 E918.1772
G1 X207.320 Y206.391 E918.2711
G1 X206.870 Y206.716 E918.3634
G1 X206.228 Y207.064 E918.4849
G1 X205.704 Y207.266 E918.5782
G1 X205.149 Y207.410 E918.6736
G1 X204.588 Y207.489 E918.7678
G1 X204.132 Y207.510 E918.8438
G1 X200.096 Y207.507 E919.5149
G1 X199.680 Y207.483 E919.5842
G1 X199.117 Y207.398 E919.6789
G1 X198.403 Y207.189 E919.8026
G1 X197.890 Y206.964 E919.8958
G1 X197.410 Y206.685 E919.9881
G1 X197.014 Y206.401 E920.0692
G1 X196.683 Y206.195 E920.1340
G1 X196.284 Y206.016 E920.2067
G1 X195.862 Y205.897 E920.2796
G1 X195.263 Y205.837 E920.3798
G1 X113.063 Y205.837 E934.0497
G1 X112.626 Y205.869 E934.1225
G1 X112.199 Y205.964 E934.1953
G1 X111.790 Y206.121 E934.2681
G1 X111.408 Y206.335 E934.3409
G1 X110.730 Y206.803 E934.4780
G1 X110.228 Y207.064 E934.5720
G1 X109.704 Y207.266 E934.6654
G1 X109.149 Y207.410 E934.7608
G1 X108.747 Y207.473 E934.8284
G1 X108.132 Y207.510 E934.9309
G1 X104.096 Y207.507 E935.6021
G1 X103.680 Y207.483 E935.6714
G1 X103.117 Y207.398 E935.7661
G1 X102.403 Y207.189 E935.8898
G1 X101.890 Y206.964 E935.9830
G1 X101.410 Y206.685 E936.0753
G1 X101.073 Y206.443 E936.1443
G1 X100.653 Y206.074 E936.2372
G1 X100.273 Y205.656 E936.3312
G1 X99.945 Y205.202 E936.4244
G1 X99.600 Y204.564 E936.5450
G1 X99.396 Y204.034 E936.6394
G1 X99.254 Y203.485 E936.7337
G1 X99.175 Y202.924 E936.8279
G1 X99.154 Y202.468 E936.9039
G1 X99.154 Y198.544 E937.5564
G1 X99.181 Y198.016 E937.6443
G1 X99.266 Y197.453 E937.7390
G1 X99.480 Y196.726 E937.8651
G1 X99.700 Y196.226 E937.9559
G0 F6000 X99.600 Y108.834
G1 F960 X99.600 Y100.159 E939.3986
G0 F6000 X102.000 Y97.853
G1 F960 X102.000 Y207.143 E957.5735
G0 F6000 X104.400 Y207.627
G1 F960 X104.400 Y97.370 E975.9094
G0 F6000 X106.800 Y97.370
G1 F960 X106.800 Y207.629 E994.2455
G0 F6000 X109.200 Y207.521
G1 F960 X109.200 Y97.485 E1012.5446
G0 F6000 X111.600 Y98.636
G1 F960 X111.600 Y206.366 E1030.4602
G0 F6000 X114.000 Y205.957
G1 F960 X114.000 Y99.044 E1048.2399
G0 F6000 X116.400 Y99.044
G1 F960 X116.400 Y205.957 E1066.0195
G0 F6000 X118.800 Y205.957
G1 F960 X118.800 Y99.044 E1083.7993
G0 F6000 X121.200 Y99.044
G1 F960 X121.200 Y205.957 E1101.5790
G0 F6000 X123.600 Y205.957
G1 F960 X123.600 Y99.044 E1119.3586
G0 F6000 X126.000 Y99.044
G1 F960 X126.000 Y205.957 E1137.1384
G0 F6000 X128.400 Y205.957
G1 F960 X128.400 Y99.044 E1154.9181
G0 F6000 X130.800 Y99.044
G1 F960 X130.800 Y205.957 E1172.6978
G0 F6000 X133.200 Y205.957
G1 F960 X133.200 Y99.044 E1190.4775
G0 F6000 X135.600 Y99.044
G1 F960 X135.600 Y205.957 E1208.2572
G0 F6000 X138.000 Y205.957
G1 F960 X138.000 Y99.044 E1226.0369
G0 F6000 X140.400 Y99.044
G1 F960 X140.400 Y205.957 E1243.8167
G0 F6000 X142.800 Y205.957
G1 F960 X142.800 Y99.044 E1261.5963
G0 F6000 X145.200 Y99.044
G1 F960 X145.200 Y205.957 E1279.3760
G0 F6000 X147.600 Y205.957
G1 F960 X147.600 Y99.044 E1297.1558
G0 F6000 X150.000 Y99.044
G1 F960 X150.000 Y205.957 E1314.9354
G0 F6000 X152.400 Y205.957
G1 F960 X152.400 Y99.044 E1332.7151
G0 F6000 X154.800 Y99.044
G1 F960 X154.800 Y205.957 E1350.4949
G0 F6000 X157.200 Y205.957
G1 F960 X157.200 Y99.044 E1368.2745
G0 F6000 X159.600 Y99.044
G1 F960 X159.600 Y205.957 E1386.0542
G0 F6000 X162.000 Y205.957
G1 F960 X162.000 Y99.044 E1403.8340
G0 F6000 X164.400 Y99.044
G1 F960 X164.400 Y205.957 E1421.6136
G0 F6000 X166.800 Y205.957
G1 F960 X166.800 Y99.044 E1439.3933
G0 F6000 X169.200 Y99.044
G1 F960 X169.200 Y205.957 E1457.1731
G0 F6000 X171.600 Y205.957
G1 F960 X171.600 Y99.044 E1474.9528
G0 F6000 X174.000 Y99.044
G1 F960 X174.000 Y205.957 E1492.7324
G0 F6000 X176.400 Y205.957
G1 F960 X176.400 Y99.044 E1510.5122
G0 F6000 X178.800 Y99.044
G1 F960 X178.800 Y205.957 E1528.2919
G0 F6000 X181.200 Y205.957
G1 F960 X181.200 Y99.044 E1546.0715
G0 F6000 X183.600 Y99.044
G1 F960 X183.600 Y205.957 E1563.8513
G0 F6000 X186.000 Y205.957
G1 F960 X186.000 Y99.044 E1581.6310
G0 F6000 X188.400 Y99.044
G1 F960 X188.400 Y205.957 E1599.4106
G0 F6000 X190.800 Y205.957
G1 F960 X190.800 Y99.044 E1617.1904
G0 F6000 X193.200 Y99.044
G1 F960 X193.200 Y205.957 E1634.9701
G0 F6000 X195.600 Y205.991
G1 F960 X195.600 Y99.018 E1652.7598
G0 F6000 X198.000 Y97.856
G1 F960 X198.000 Y207.143 E1670.9343
G0 F6000 X200.400 Y207.627
G1 F960 X200.400 Y97.371 E1689.2699
G0 F6000 X202.800 Y97.372
